svgs/sharp-solid/arrow-progress.svg

<svg xmlns="http://www.w3.org/2000/svg" viewBox="0 0 512 512"><!--! Font Awesome Pro 6.6.0 by @fontawesome - https://fontawesome.com License - https://fontawesome.com/license (Commercial License) Copyright 2024 Fonticons, Inc. --><path d="M256 128l0-32L64 96l0 128 416 0 32 0 0 32 0 192 0 32-32 0-64 0 0 32-128 0 0-128 128 0 0 32 32 0 0-128L32 288 0 288l0-32L0 64 0 32l32 0 224 0 0-32 24 0 72 64-72 64-24 0zM128 384l0 32 32 0 0-32 24 0 72 64-72 64-24 0 0-32-32 0 0 32L0 512 0 384l128 0zM512 0l0 128-128 0L384 0 512 0z"/></svg>

<svg xmlns="http://www.w3.org/2000/svg" viewBox="0 0 512 512"><!--! Font Awesome Pro 6.4.2 by @fontawesome - https://fontawesome.com License - https://fontawesome.com/license (Commercial License) Copyright 2023 Fonticons, Inc. --><path d="M256 128V96H64V224H480h32v32V448v32H480 416v32H288V384H416v32h32V288H32 0V256 64 32H32 256V0h24l72 64-72 64H256zM128 384v32h32V384h24l72 64-72 64H160V480H128v32H0V384H128zM512 0V128H384V0H512z"/></svg>
